assets/img/braze_icons/attachment-02.svg

<svg fill="none" height="24" viewBox="0 0 24 24" width="24" xmlns="http://www.w3.org/2000/svg"><path clip-rule="evenodd" d="m10.1667 3c-1.47279 0-2.6667 1.19391-2.6667 2.66667v10.83333c0 2.4853 2.01472 4.5 4.5 4.5 2.4853 0 4.5-2.0147 4.5-4.5v-11.24419c0-.55228.4477-1 1-1s1 .44772 1 1v11.24419c0 3.5899-2.9101 6.5-6.5 6.5-3.58985 0-6.5-2.9101-6.5-6.5v-10.83333c0-2.57733 2.08934-4.66667 4.6667-4.66667 2.5773 0 4.6666 2.08934 4.6666 4.66667v10.77903c0 1.5648-1.2685 2.8334-2.8333 2.8334s-2.83333-1.2686-2.83333-2.8334v-9.79454c0-.55228.44771-1 1.00003-1 .5523 0 1 .44772 1 1v9.79454c0 .4603.3731.8334.8333.8334s.8333-.3731.8333-.8334v-10.77903c0-1.47276-1.1939-2.66667-2.6666-2.66667z" fill="#801ed7" fill-rule="evenodd"/></svg>

<svg width="24" height="24" viewBox="0 0 24 24" fill="none" xmlns="http://www.w3.org/2000/svg">
<path fill-rule="evenodd" clip-rule="evenodd" d="M10.1667 3C8.69391 3 7.5 4.19391 7.5 5.66667V16.5C7.5 18.9853 9.51472 21 12 21C14.4853 21 16.5 18.9853 16.5 16.5V5.25581C16.5 4.70353 16.9477 4.25581 17.5 4.25581C18.0523 4.25581 18.5 4.70353 18.5 5.25581V16.5C18.5 20.0899 15.5899 23 12 23C8.41015 23 5.5 20.0899 5.5 16.5V5.66667C5.5 3.08934 7.58934 1 10.1667 1C12.744 1 14.8333 3.08934 14.8333 5.66667V16.4457C14.8333 18.0105 13.5648 19.2791 12 19.2791C10.4352 19.2791 9.16667 18.0105 9.16667 16.4457V6.65116C9.16667 6.09888 9.61438 5.65116 10.1667 5.65116C10.719 5.65116 11.1667 6.09888 11.1667 6.65116V16.4457C11.1667 16.906 11.5398 17.2791 12 17.2791C12.4602 17.2791 12.8333 16.906 12.8333 16.4457V5.66667C12.8333 4.19391 11.6394 3 10.1667 3Z" fill="#801ED7"/>
</svg>
